!!!id: EG028b
!!!page: 26-28
!!!COM: Anonymous
!!!LYR: Anonymous
!!!PTL@@FR: Chansons Populaires du Canada
!!!OTL@@FR: Dans les prisons de Nantes
!!!PUB: G. E. Desbarats
!!!YEM:
!!!PDT: 1865
!!!SMA:
!!!OMD:
!!!AGN-Laforte:
!!!AGN-type:
!!!AGN-rime:
**kern
*clefG2
*k[]
*a:
*M2/4
*
*
8e
=1
8.a
16g#
8a
8b/
=2
8ccL/
8aJ/
8b
8cc
=3
8.a
16g#
8a
8b/
!!LO:PB:g=original
=4
8ccL
8aJ
8b
8b
=5
8b
8b
4gn
=6
4b/
8aL
8gJ
=7
8e
16a
16a
8a
16a
16b/
!!LO:PB:g=original
=8
4cc
8b
8b
=9
8b
8b
4g
=10
4b/
8aL
8gJ
=11
8e
16a
16a
8a
8b/
16ccqL
16bqJ
!!LO:PB:g=original
=12
4.a
==||
8r
==||
*
*
==|
!!!RDF**kern: i = editorial accidental
*-
